resources/haticons/SVG/digitalocean1.svg

<!-- Generated by IcoMoon.io -->
<svg version="1.1" xmlns="http://www.w3.org/2000/svg" width="24" height="24" viewBox="0 0 24 24">
<title>digitalocean1</title>
<path fill="#0080ff" d="M0.836 19.365h-0.004v-2.985h2.985v2.985h3.563v-4.635h4.635v4.62c4.927-0.006 8.73-4.883 6.852-10.066-0.698-1.92-2.23-3.45-4.15-4.146-5.19-1.883-10.070 1.93-10.070 6.862h-4.647c0-7.856 7.59-13.976 15.824-11.405 3.6 1.125 6.456 3.982 7.58 7.58 2.57 8.235-3.546 15.825-11.404 15.825v-4.635h-4.623v3.56h-3.56v-3.56h-2.984z"></path>
</svg>

<svg xmlns="http://www.w3.org/2000/svg" width="24" height="24"><path fill="#0080ff" d="M.836 19.365H.832V16.38h2.985v2.985H7.38V14.73h4.635v4.62c4.927-.006 8.73-4.883 6.852-10.066a6.956 6.956 0 0 0-4.15-4.146C9.527 3.255 4.647 7.068 4.647 12H0C0 4.144 7.59-1.976 15.824.595a11.602 11.602 0 0 1 7.58 7.58C25.974 16.41 19.858 24 12 24v-4.635H7.377v3.56h-3.56v-3.56H.833z"/></svg>
